client/public/img/game/winter/obstacles/regular_crate_winter_5.svg

<?xml version="1.0" encoding="UTF-8" standalone="no"?>
<!-- Created with Inkscape (http://www.inkscape.org/) -->

<svg
   width="185"
   height="185"
   viewBox="0 0 48.947917 48.947917"
   version="1.1"
   id="svg5"
   xmlns="http://www.w3.org/2000/svg"
   xmlns:svg="http://www.w3.org/2000/svg">
  <defs
     id="defs2" />
  <g
     id="layer1">
    <g
       id="g865"
       transform="matrix(1.9616501,0,0,1.9616501,4.1209673e-4,4.1209673e-4)">
      <g
         id="g66566">
        <rect
           style="fill:#674b24;fill-opacity:1;stroke:none;stroke-width:0.798207;stroke-linecap:butt;stroke-linejoin:miter;stroke-miterlimit:4;stroke-dasharray:none;stroke-opacity:1"
           id="rect66532"
           width="16.9"
           height="16.9"
           x="4"
           y="4" />
        <path
           style="fill:none;stroke:#342612;stroke-width:1;stroke-linecap:butt;stroke-linejoin:miter;stroke-miterlimit:4;stroke-dasharray:none;stroke-opacity:1"
           d="m 8.2434724,4.041 v 16.87"
           id="path66534" />
        <path
           style="fill:none;stroke:#342612;stroke-width:1;stroke-linecap:butt;stroke-linejoin:miter;stroke-miterlimit:4;stroke-dasharray:none;stroke-opacity:1"
           d="m 17.06076,4.041 v 16.87"
           id="path66536" />
        <path
           style="fill:none;stroke:#342612;stroke-width:1;stroke-linecap:butt;stroke-linejoin:miter;stroke-miterlimit:4;stroke-dasharray:none;stroke-opacity:1"
           d="m 12.652117,4.041 v 16.87"
           id="path66538" />
        <rect
           style="fill:#9e7437;fill-opacity:1;stroke:#3f2e16;stroke-width:1;stroke-linecap:butt;stroke-linejoin:bevel;stroke-miterlimit:4;stroke-dasharray:none;stroke-opacity:1"
           id="rect66540"
           width="29.332001"
           height="4"
           x="-14.931466"
           y="15.643632"
           transform="matrix(-0.70710372,0.70710984,0.70710372,0.70710984,0,0)" />
        <path
           id="path66542"
           style="fill:#9e7437;stroke-width:0;stroke-linecap:round"
           d="M 0.49998583,0.49998698 V 24.452013 H 24.452014 V 0.49998698 Z M 4.5410828,4.541084 H 20.410916 V 20.410916 H 4.5410828 Z" />
        <rect
           style="fill:none;fill-opacity:1;stroke:none;stroke-width:1;stroke-linecap:butt;stroke-linejoin:bevel;stroke-miterlimit:4;stroke-dasharray:none;stroke-opacity:1"
           id="rect66544"
           width="16.9"
           height="16.9"
           x="4"
           y="4" />
        <circle
           style="fill:#808080;fill-opacity:1;stroke:#2e2e2e;stroke-width:0.499999;stroke-linecap:round;stroke-linejoin:round;stroke-opacity:1"
           id="circle66546"
           cx="2.576957"
           cy="2.576957"
           r="0.82695758" />
        <circle
           style="fill:#808080;fill-opacity:1;stroke:#2e2e2e;stroke-width:0.499999;stroke-linecap:round;stroke-linejoin:round;stroke-opacity:1"
           id="circle66548"
           cx="22.374956"
           cy="2.576957"
           r="0.82695758" />
        <circle
           style="fill:#808080;fill-opacity:1;stroke:#2e2e2e;stroke-width:0.499999;stroke-linecap:round;stroke-linejoin:round;stroke-opacity:1"
           id="circle66550"
           cx="2.576957"
           cy="22.374956"
           r="0.82695758" />
        <circle
           style="fill:#808080;fill-opacity:1;stroke:#2e2e2e;stroke-width:0.499999;stroke-linecap:round;stroke-linejoin:round;stroke-opacity:1"
           id="circle66552"
           cx="22.374956"
           cy="22.374956"
           r="0.82695758" />
        <rect
           style="fill:none;fill-opacity:1;stroke:#3f2e16;stroke-width:1;stroke-linecap:butt;stroke-linejoin:miter;stroke-miterlimit:4;stroke-dasharray:none;stroke-opacity:1"
           id="rect66554"
           width="15.870146"
           height="15.870145"
           x="4.540925"
           y="4.5409274" />
        <rect
           style="fill:none;fill-opacity:1;stroke:#3f2e16;stroke-width:1;stroke-linecap:round;stroke-linejoin:round;stroke-miterlimit:4;stroke-dasharray:none;stroke-opacity:1"
           id="rect66556"
           width="23.952419"
           height="23.952419"
           x="0.49978992"
           y="0.49978992" />
        <path
           style="fill:none;stroke:#3f2e16;stroke-width:1;stroke-linecap:butt;stroke-linejoin:miter;stroke-miterlimit:4;stroke-dasharray:none;stroke-opacity:1"
           d="m 20.411072,4.5409274 h 4"
           id="path66558" />
        <path
           style="fill:none;stroke:#3f2e16;stroke-width:1;stroke-linecap:butt;stroke-linejoin:miter;stroke-miterlimit:4;stroke-dasharray:none;stroke-opacity:1"
           d="m 20.411072,20.411072 h 4"
           id="path66560" />
        <path
           style="fill:none;stroke:#3f2e16;stroke-width:1;stroke-linecap:butt;stroke-linejoin:miter;stroke-miterlimit:4;stroke-dasharray:none;stroke-opacity:1"
           d="M 0.54092503,20.411072 H 4.540925"
           id="path66562" />
        <path
           style="fill:none;stroke:#3f2e16;stroke-width:1;stroke-linecap:butt;stroke-linejoin:miter;stroke-miterlimit:4;stroke-dasharray:none;stroke-opacity:1"
           d="M 0.54092503,4.5409274 H 4.540925"
           id="path66564" />
      </g>
      <path
         id="rect62437-8"
         style="fill:#c9d1d9;fill-opacity:1;stroke:#a2a5c0;stroke-width:0.99998509;stroke-linecap:round;stroke-linejoin:round;stroke-miterlimit:4;stroke-dasharray:none;stroke-opacity:1"
         d="M 0.50160515,0.50056868 V 13.932516 C 1.2867911,14.005939 2.1370956,14.291183 2.6470082,13.874029 3.3210836,11.179747 1.5614986,10.7927 4.5250241,8.6775419 4.9455425,8.3831775 5.433443,8.1974002 5.9025175,7.9889278 7.8262806,6.7514848 4.9925438,5.4773585 5.2763355,4.4828896 5.8138269,3.6983969 7.0196434,3.3179009 7.2797509,3.2307906 9.5029303,2.7725641 10.905194,1.5856603 12.571072,0.50056868 Z m 0,19.66044832 v 4.291979 H 4.7939406 C 4.7336189,24.329814 4.6935608,24.194122 4.6190215,24.078918 3.8114106,23.151826 2.7388849,22.685953 3.2417932,21.699849 3.8841453,20.27224 0.50160515,19.859378 0.50160515,20.161017 Z" />
      <path
         style="fill:#c9d1d9;fill-opacity:1;stroke:#a2a5c0;stroke-width:1.9616208;stroke-miterlimit:4;stroke-dasharray:none;stroke-opacity:1"
         d="m 630.91659,159.10522 c -1.7367,-0.82422 -3.78749,-0.92414 -4.79064,0.0491 -1.00314,0.97325 -0.95864,3.01959 -0.51303,4.34992 0.4456,1.33033 1.2923,1.94461 2.7762,2.32075 1.48391,0.37613 3.60494,0.51412 4.89603,0.008 1.2911,-0.50613 1.75219,-1.65632 1.27144,-3.0057 -0.48076,-1.34938 -1.90331,-2.89785 -3.64,-3.72207 z"
         id="path30-7-4-5"
         transform="matrix(0.50977492,0,0,0.50977492,-300.99975,-78.416973)" />
      <path
         style="fill:#c9d1d9;fill-opacity:1;stroke:#a2a5c0;stroke-width:1.9616208;stroke-dasharray:none;stroke-opacity:1"
         d="m 615.90974,183.84262 c -1.61954,0.38139 -1.82913,1.69142 -2.0038,4.38176 -0.17466,2.69034 -0.31438,6.76069 1.85145,9.36915 2.16584,2.60845 6.63708,3.75473 10.92213,2.83064 4.28505,-0.92408 8.38368,-3.91842 9.78095,-7.5679 1.39728,-3.64947 0.0932,-7.95377 -2.50247,-9.44639 -2.59565,-1.49263 -6.48269,-0.17338 -9.94097,0.21262 -3.45828,0.386 -6.48775,-0.16127 -8.10729,0.22012 z"
         id="path32-1-5"
         transform="matrix(0.50977492,0,0,0.50977492,-300.99975,-78.416973)" />
      <path
         id="path78-73-6"
         style="fill:#c9d1d9;fill-opacity:1;fill-rule:evenodd;stroke:#a2a5c0;stroke-width:0.99998509;stroke-dasharray:none;stroke-opacity:1"
         d="m 8.6411405,6.9462647 c -0.1406163,0.00255 -0.2845054,0.043688 -0.3904111,0.1367217 -0.070849,0.062249 -0.1219586,0.1455152 -0.1525247,0.2349807 -0.030587,0.089471 -0.041037,0.1849565 -0.037927,0.2795045 0.00622,0.1890959 0.065419,0.3717075 0.118543,0.5532128 0.053124,0.1815003 0.1008794,0.3695614 0.083511,0.5579487 -0.00872,0.094201 -0.033951,0.1873423 -0.080611,0.2694925 C 8.1350768,9.060286 8.0665528,9.1309459 7.9825674,9.1735937 7.8612206,9.2352204 7.7186416,9.2350012 7.5829395,9.2268142 7.4472375,9.2186068 7.3084054,9.2041292 7.1775155,9.2410369 7.0333461,9.281717 6.9111582,9.3831214 6.8239866,9.5055285 6.7368151,9.6279306 6.6819328,9.7706421 6.640901,9.9154284 6.5573234,10.210333 6.5276341,10.522045 6.5689819,10.825856 c 0.041343,0.30381 0.1551704,0.599342 0.3403564,0.842984 0.228476,0.300604 0.5515917,0.54028 0.9075268,0.646206 1.3826574,0.41149 3.7411569,0.397798 4.3242629,-0.174129 C 12.5514,11.591222 12.33449,10.709749 12.33449,10.032391 12.131411,9.4901894 11.792936,8.9980935 11.403519,8.5666506 10.766153,7.8605053 9.9667184,7.2810798 9.0557965,7.0155533 8.9207164,6.9761987 8.7817619,6.9435629 8.6411507,6.9462749 Z" />
    </g>
  </g>
</svg>

<svg xmlns="http://www.w3.org/2000/svg" width="185" height="185" viewBox="0 0 48.948 48.948"><g transform="scale(1.96165)"><path d="M4 4h16.9v16.9H4z" style="fill:#674b24;fill-opacity:1;stroke:none;stroke-width:.798207;stroke-linecap:butt;stroke-linejoin:miter;stroke-miterlimit:4;stroke-dasharray:none;stroke-opacity:1"/><path d="M8.243 4.041v16.87M17.06 4.041v16.87M12.652 4.041v16.87" style="fill:none;stroke:#342612;stroke-width:1;stroke-linecap:butt;stroke-linejoin:miter;stroke-miterlimit:4;stroke-dasharray:none;stroke-opacity:1"/><path d="M-14.931 15.644h29.332v4h-29.332z" style="fill:#9e7437;fill-opacity:1;stroke:#3f2e16;stroke-width:1;stroke-linecap:butt;stroke-linejoin:bevel;stroke-miterlimit:4;stroke-dasharray:none;stroke-opacity:1" transform="scale(-1 1)rotate(45)"/><path d="M.5.5v23.952h23.952V.5Zm4.041 4.041h15.87v15.87H4.54Z" style="fill:#9e7437;stroke-width:0;stroke-linecap:round"/><path d="M4 4h16.9v16.9H4z" style="fill:none;fill-opacity:1;stroke:none;stroke-width:1;stroke-linecap:butt;stroke-linejoin:bevel;stroke-miterlimit:4;stroke-dasharray:none;stroke-opacity:1"/><circle cx="2.577" cy="2.577" r=".827" style="fill:gray;fill-opacity:1;stroke:#2e2e2e;stroke-width:.499999;stroke-linecap:round;stroke-linejoin:round;stroke-opacity:1"/><circle cx="22.375" cy="2.577" r=".827" style="fill:gray;fill-opacity:1;stroke:#2e2e2e;stroke-width:.499999;stroke-linecap:round;stroke-linejoin:round;stroke-opacity:1"/><circle cx="2.577" cy="22.375" r=".827" style="fill:gray;fill-opacity:1;stroke:#2e2e2e;stroke-width:.499999;stroke-linecap:round;stroke-linejoin:round;stroke-opacity:1"/><circle cx="22.375" cy="22.375" r=".827" style="fill:gray;fill-opacity:1;stroke:#2e2e2e;stroke-width:.499999;stroke-linecap:round;stroke-linejoin:round;stroke-opacity:1"/><path d="M4.541 4.541h15.87v15.87H4.541z" style="fill:none;fill-opacity:1;stroke:#3f2e16;stroke-width:1;stroke-linecap:butt;stroke-linejoin:miter;stroke-miterlimit:4;stroke-dasharray:none;stroke-opacity:1"/><path d="M.5.5h23.952v23.952H.5z" style="fill:none;fill-opacity:1;stroke:#3f2e16;stroke-width:1;stroke-linecap:round;stroke-linejoin:round;stroke-miterlimit:4;stroke-dasharray:none;stroke-opacity:1"/><path d="M20.411 4.54h4M20.411 20.411h4M.54 20.411h4M.54 4.54h4" style="fill:none;stroke:#3f2e16;stroke-width:1;stroke-linecap:butt;stroke-linejoin:miter;stroke-miterlimit:4;stroke-dasharray:none;stroke-opacity:1"/></g><path d="M.502.5v13.433c.785.073 1.635.358 2.145-.059.674-2.694-1.086-3.081 1.878-5.196.42-.295.908-.48 1.378-.69 1.923-1.237-.91-2.51-.627-3.505.538-.785 1.744-1.165 2.004-1.252C9.503 2.773 10.905 1.586 12.57.5Zm0 19.661v4.292h4.292c-.06-.123-.1-.259-.175-.374-.808-.927-1.88-1.393-1.377-2.38.642-1.427-2.74-1.84-2.74-1.538" style="fill:#c9d1d9;fill-opacity:1;stroke:#a2a5c0;stroke-width:.99998509;stroke-linecap:round;stroke-linejoin:round;stroke-miterlimit:4;stroke-dasharray:none;stroke-opacity:1" transform="scale(1.96165)"/><path d="M630.917 159.105c-1.737-.824-3.788-.924-4.791.05-1.003.973-.959 3.019-.513 4.35s1.292 1.944 2.776 2.32 3.605.514 4.896.008 1.752-1.656 1.272-3.006c-.481-1.35-1.904-2.898-3.64-3.722z" style="fill:#c9d1d9;fill-opacity:1;stroke:#a2a5c0;stroke-width:1.9616208;stroke-miterlimit:4;stroke-dasharray:none;stroke-opacity:1" transform="translate(-590.456 -153.826)"/><path d="M615.91 183.843c-1.62.381-1.83 1.691-2.004 4.381-.175 2.69-.314 6.761 1.851 9.37s6.637 3.754 10.923 2.83c4.285-.924 8.383-3.918 9.78-7.568s.094-7.954-2.502-9.446c-2.596-1.493-6.483-.174-9.941.212s-6.488-.16-8.107.22z" style="fill:#c9d1d9;fill-opacity:1;stroke:#a2a5c0;stroke-width:1.9616208;stroke-dasharray:none;stroke-opacity:1" transform="translate(-590.456 -153.826)"/><path d="M8.641 6.946a.6.6 0 0 0-.39.137.55.55 0 0 0-.153.235.8.8 0 0 0-.038.28c.006.189.066.371.119.553.053.181.1.37.083.558a.7.7 0 0 1-.08.27.5.5 0 0 1-.2.195c-.12.061-.263.061-.4.053-.135-.008-.274-.023-.404.014a.67.67 0 0 0-.354.265 1.3 1.3 0 0 0-.183.41 2.2 2.2 0 0 0-.072.91c.041.304.155.6.34.843.229.3.552.54.908.646 1.383.412 3.741.398 4.324-.174.41-.55.193-1.431.193-2.109-.203-.542-.541-1.034-.93-1.465-.638-.706-1.437-1.286-2.348-1.551a1.4 1.4 0 0 0-.415-.07Z" style="fill:#c9d1d9;fill-opacity:1;fill-rule:evenodd;stroke:#a2a5c0;stroke-width:.99998509;stroke-dasharray:none;stroke-opacity:1" transform="scale(1.96165)"/></svg>
